src/actions/32/mail-signed-verified.svg

<svg xmlns="http://www.w3.org/2000/svg" viewBox="0 0 32 32">
  <defs id="defs3051">
    <style type="text/css" id="current-color-scheme">
      .ColorScheme-Text {
        color:#363636;
      }
      </style>
  </defs>
 <path 
     style="fill:currentColor;fill-opacity:1;stroke:none" 
     d="M 2,5 2,24.683594 2,27 17,27 17,26 3,26 3,25.111328 3.4296875,24.683594 12.785156,15.541016 16,18.683594 28.976562,6 29,6 l 0,8 1,0 0,-9 z M 3,6 3.0234375,6 12.070312,14.841797 3,23.707031 Z M 4.453125,6 27.546875,6 16,17.285156 Z"
     class="ColorScheme-Text"
     />
    <path
     style="fill:#2ecc71;fill-opacity:1;stroke:none"
     d="M 29.636719,18 22,25.560547 19.089844,22.679687 18.363281,23.40039 21.271484,26.279297 22,27 23.089844,25.919922 30.363281,18.720703 29.636719,18 Z"
     />
</svg>

<svg version="1.1" viewBox="0 0 32 32" xmlns="http://www.w3.org/2000/svg">
 <defs>
  <style id="current-color-scheme" type="text/css">.ColorScheme-Text {
        color:#2e3440;
      }</style>
 </defs>
 <path class="ColorScheme-Text" d="m2 5v19.684 2.3164h15v-1h-14v-0.88867l0.42969-0.42773 9.3555-9.1426 3.2148 3.1426 12.977-12.684h0.023438v8h1v-9zm1 1h0.023438l9.0469 8.8418-9.0703 8.8652zm1.4531 0h23.094l-11.547 11.285z" fill="currentColor"/>
 <path d="m29.637 18-7.6367 7.5605-2.9102-2.8809-0.72656 0.7207 2.9082 2.8789 0.72852 0.7207 1.0898-1.0801 7.2734-7.1992-0.72656-0.7207z" fill="#a3be8c"/>
</svg>
